apps/web/src/images/integrations/logo-google-badge-color.svg

<svg width="600" height="600" fill="none" xmlns="http://www.w3.org/2000/svg"><path d="M593.251 306.75c0-19.75-1.75-38.5-4.75-56.75H306v112.75h161.75c-7.25 37-28.5 68.25-60 89.501v75h96.5c56.501-52.25 89.001-129.251 89.001-220.501Z" fill="#4285F4"/><path d="M306.001 600.001c81 0 148.75-27 198.25-72.751l-96.5-75c-27 18-61.25 29-101.75 29-78.251 0-144.501-52.75-168.251-124h-99.5v77.25c49.25 98 150.5 165.501 267.751 165.501Z" fill="#34A853"/><path d="M137.75 357.25c-6.25-18-9.5-37.25-9.5-57.25s3.5-39.25 9.5-57.25V165.5h-99.5C17.75 206 6 251.5 6 300s11.75 94 32.25 134.501l99.5-77.251Z" fill="#FBBC05"/><path d="M306.001 118.75c44.25 0 83.75 15.25 115 45l85.5-85.5C454.751 29.75 387.001 0 306.001 0 188.75 0 87.501 67.5 38.25 165.5l99.5 77.251c23.75-71.251 90-124.001 168.251-124.001Z" fill="#EA4335"/></svg>

<svg width="600" height="600" viewBox="0 0 600 600" fill="none" xmlns="http://www.w3.org/2000/svg">
<path d="M593.251 306.75C593.251 287 591.501 268.25 588.501 250H306V362.75H467.75C460.5 399.75 439.25 431 407.75 452.251V527.251H504.25C560.751 475.001 593.251 398 593.251 306.75Z" fill="#4285F4"/>
<path d="M306.001 600.001C387.001 600.001 454.751 573.001 504.251 527.25L407.751 452.25C380.751 470.25 346.501 481.25 306.001 481.25C227.75 481.25 161.5 428.5 137.75 357.25H38.25V434.5C87.5001 532.5 188.75 600.001 306.001 600.001Z" fill="#34A853"/>
<path d="M137.75 357.25C131.5 339.25 128.25 320 128.25 300C128.25 280 131.75 260.75 137.75 242.75V165.5H38.25C17.75 206 6 251.5 6 300C6 348.5 17.75 394 38.25 434.501L137.75 357.25Z" fill="#FBBC05"/>
<path d="M306.001 118.75C350.251 118.75 389.751 134 421.001 163.75L506.501 78.2502C454.751 29.7501 387.001 0 306.001 0C188.75 0 87.5001 67.5002 38.25 165.5L137.75 242.751C161.5 171.5 227.75 118.75 306.001 118.75Z" fill="#EA4335"/>
</svg>
